X:168
T:Gubbdansen
R:sl\"angpolska
A:Gotland
Z:id:hn-sp-168
M:3/4
L:1/16
K:Dm
f3e f4 a4 | a2ba g2ag f2e2 | d3e fefg a3f | f2e2 e2^c2 A4 :|
|: ^c3c d2d2 e2e2 | f2f2 gfed e4 | ^c3c d2d2 e2e2 | f2f2 gfed e4 |
a3a b2a2 g2f2 | f2ef g2f2 e3d | fed^c c4 d4 :|
<end>
<start>
